fs/surface_hub_24_filled.svg

<svg viewBox="0 0 24 24" fill="none" xmlns="http://www.w3.org/2000/svg" height="1em" width="1em">
  <path d="M19.2498 2C19.6608 2 19.9883 2.32863 19.9996 2.72749L19.9957 2.82851L18.9957 12.3285C18.9591 12.6755 18.6898 12.9466 18.3528 12.993L18.2498 13H17.521L18.9878 21.1182L18.9992 21.2196C19.0154 21.5887 18.7567 21.9221 18.3831 21.9896C18.0094 22.0571 17.6505 21.8352 17.5366 21.4838L17.5117 21.3848L16.9 18H14.103L13.4956 21.3842C13.4223 21.7919 13.0324 22.063 12.6247 21.9897C12.251 21.9225 11.9921 21.5893 12.008 21.2202L12.0193 21.1188L12.579 18H8.103L7.4956 21.3842C7.42231 21.7919 7.03242 22.063 6.62474 21.9897C6.25103 21.9225 5.99211 21.5893 6.00799 21.2202L6.01926 21.1188L7.478 13H4.74978C4.33876 13 4.01129 12.6714 4 12.2725L4.0039 12.1715L5.0039 2.67149C5.04043 2.32448 5.30977 2.05345 5.6468 2.00704L5.74978 2H19.2498ZM13.478 13H9.002L8.373 16.5H12.849L13.478 13ZM15.996 13H15.002L14.373 16.5H16.628L15.996 13Z" fill="#212121"/>
</svg>

<svg viewBox="0 0 24 24" fill="none" xmlns="http://www.w3.org/2000/svg" height="1em" width="1em">
  <path d="M19.25 2a.75.75 0 0 1 .75.727l-.004.102-1 9.5a.75.75 0 0 1-.643.664L18.25 13h-.729l1.467 8.118.011.102a.75.75 0 0 1-1.462.264l-.025-.1L16.9 18h-2.797l-.607 3.384a.75.75 0 0 1-1.488-.164l.011-.101.56-3.119H8.103l-.607 3.384a.75.75 0 0 1-1.488-.164l.011-.101L7.478 13H4.75a.75.75 0 0 1-.75-.727l.004-.101 1-9.5a.75.75 0 0 1 .643-.665L5.75 2h13.5Zm-5.772 11H9.002l-.629 3.5h4.476l.629-3.5Zm2.518 0h-.994l-.629 3.5h2.255l-.632-3.5Z" fill="#212121"/>
</svg>
